components/icon/svg/24/av_skip-forward.svg

<?xml version="1.0" encoding="UTF-8"?>
<svg width="24px" height="24px" viewBox="0 0 24 24" version="1.1" xmlns="http://www.w3.org/2000/svg" xmlns:xlink="http://www.w3.org/1999/xlink">
    <!-- Generator: Sketch 64 (93537) - https://sketch.com -->
    <title>ic-db_av_skip-forward_24</title>
    <desc>Created with Sketch.</desc>
    <g id="Symbols:Icon" stroke="none" stroke-width="1" fill="none" fill-rule="evenodd">
        <g id="24dp-Icon/AV/Skip-Forward" fill="#282D37">
            <path d="M7.0436,5 C7.443,5 7.8423,5.1409 8.1946,5.3758 L14.6477,10.3322 C15.1879,10.7081 15.4933,11.3423 15.4933,12 C15.4933,12.6577 15.1879,13.2919 14.6477,13.6678 L8.1946,18.6242 C7.8423,18.8591 7.443,19 7.0201,19 C5.9866,19 5,18.1309 5,16.9564 L5,7.0436 C5,5.9161 5.9396,5 7.0436,5 Z M7,7 L7,17 L13.5,12 L7,7 Z M17.0034,17.0034 L17.0034,6.9732 C17.0034,6.4329 17.4497,5.9866 17.9899,5.9866 C18.5302,5.9866 19,6.4329 19,6.9732 L19,17.0034 C19,17.5436 18.5537,17.9899 17.9899,17.9899 C17.4497,17.9899 17.0034,17.5436 17.0034,17.0034 Z" id="🎨-Color"></path>
        </g>
    </g>
</svg>

<svg width="24" height="24" xmlns="http://www.w3.org/2000/svg"><path d="M7.044 5c.399 0 .798.14 1.15.376l6.954 4.956c.54.376.845 1.01.845 1.668 0 .658-.305 1.292-.845 1.668l-6.953 4.956A2.113 2.113 0 017.02 19C5.987 19 5 18.13 5 16.956V7.044A2.06 2.06 0 017.044 5zM7 7v10l7-5-7-5zm10.003 10.003V6.973c0-.54.447-.986.987-.986s1.01.446 1.01.986v10.03c0 .54-.446.987-1.01.987a.992.992 0 01-.987-.987z" fill="#282D37" fill-rule="evenodd"/></svg>
